X:1
T:The Bridal -- Jig
R:jig
B:Ryan's Mammoth Collection
N:87 448
Z: Contributed by Ray Davies,  ray:davies99.freeserve.co.uk
M:6/8
L:1/8
K:G
uD|\
G2G BGB | def gfg | ecA dBG | FAG FED |
G2G BGB | def gfg | ecA dBG | cAF G2:|
|:uB|\
Bee edB | def g2a | bag agf | e2e edB |
Bee edB | def g2a | bag agf | e3-e2:|
